X: 33
T: No_3_Song_of_the_Duck_Dance_(a).krn
N: Derived from No_3_Song_of_the_Duck_Dance_(a).krn
%%abc-version 2.0
%%abcx-abcm2ps-target-version 5.9.1 (29 Sep 2008)
%%abc-creator hum2abc beta
%%abcx-conversion-date 2019/03/15 08:35:00
%%humdrum-veritas 2730291601
%%humdrum-veritas-data 4227633048
%%linebreak <none>
%%barnumbers 0
L: 1/16
M: 2/4
K: B clef=bass
[K:clef=bass][M:2/4]F,3F, F,3D,/ z/ | 
G,3F, F,3F, | 
[M:3/4]F,2(D,C,) C,3C, B,,3B,,/ z/ | 
[M:2/4]G,2G,G, F,3F, | 
[M:3/4](3F,2G,2F,2 C,3C, B,,3B,,/ z/ | 
G,3G, F,3F, F,2 (F,/D,/) z ]|:  
[M:2/4]G,4G,3F, | 
[M:3/4]G,3G, F,3F, F,2 (F,/D,/) z | 
[M:2/4]G,3G, F,2 (F,/D,/) z | 
[M:3/4]G,3G, F,3F, F,2 (F,/D,/) z :|]  



